X:1
T:Bean ag Baint Duileasc
R:jig
C:Donegal Fiddle - Caoimhin Mac Aoidh Tutor
Z:The Connachtman's Rambles
M:6/8
Q:100
K:D
AG|FAA dAA|BAB dAG|FAA dfe|dBB B2A|FAA dAA|BAB def|gfe f2e|1 dBB B2A:|2 dBB B2g:||
|fbb faa|fef deg|fbb faa|fed e2g|fbb faa|fef def|gfe f2e|1 dBB B2g:|2dBB B2A:||
